X:1
T:Schafe Können sicher weiden
T:Schafe Können sicher weiden
T:J.S.Bach
C:J.S.Bach
L:1/8
M:4/4
K:Bb
V:1 bass nm="Violonchelo" snm="Vc."
V:1
 (B,,B,,B,,B,,) (B,,B,,B,,B,,) | (B,,B,,B,,B,,) (B,,B,,B,,B,,) | (B,B,)(A,A,) (G,G,)(F,F,) | %3
 (E,E,)(F,F,) G,F,/E,/ F,F,, | B,,B,,B,B, B,B,B,B, | A,A,A,A, B,B,B,B, | %6
 B,,B,,B,,B,, B,,B,,A,,B,, | C,C,C,C, F,F,E,E, | D,D,B,,B,, E,E,D,D, | C,C,C,C, F,F,E,E, | %10
 D,D,E,E, B,,B,,C,C, | D,D,E,E, B,,B,,D,D, | C,C,F,F, B,,C,D,E, | F,F,F,,F,, B,,B,,B,,B,, | %14
 B,,B,,B,,B,, B,,B,,A,,A,, | B,,B,,E,E, F,F,F,,F,, | B,,B,,B,,B,, B,,B,,B,,B,, | %17
 B,,B,,B,,B,, B,,B,,B,,B,, | B,B,A,A, G,G,F,F, | E,E,F,F, G,F,/E,/ F,F,, | %20
"^Fine." !fermata!B,,B,,B,B, A,A,B,B, | CCDD G,G,F,F, | E,E,D,D, E,E,=B,,B,, | %23
 C,C,=B,,B,, C,C,D,D, | E,E,F,F, F,F,E,F, | G,G,G,,G,, C,C,C,C, | C,C,C,C, C,C,C,C, | %27
 C,C,C,C, CCB,B, | _A,A,G,G, F,F,G,G, | _A,G,/F,/ G,G,, C,C,C,C, | D,D,D,D, =E,E,E,E, | %31
 F,F,=E,_E, D,D,C,C, | B,,B,,A,,A,, G,,G,,G,,G,, | A,,A,,G,,G,, ^F,,F,,D,,D,, | %34
 G,,G,,F,,F,, =E,,E,,C,,C,, | F,,F,,F,,F,, F,,F,,F,,F,, | B,,B,,B,,B,, G,,G,,G,,G,, | %37
 C,C,C,C, B,,B,,A,,A,, | G,,G,,G,,G,, A,,A,,B,,B,, | C,C,C,,C,, F,,4 |] %40

